icon-themes/sifr_svg/cmd/sc_sendviabluetooth.svg

<svg viewBox="0 0 16 16" xmlns="http://www.w3.org/2000/svg"><path d="m7 1v3.625l-2.2929688-2.2929688-1.7070312 1.6679688 4 4-4 4 1.7070312 1.667969 2.2929688-2.292969v3.625h2l4-3.585938v-.828124l-2.585938-2.585938 2.585938-2.5859375v-.828125l-4-3.5859375zm2 2 2 2-2 2zm0 6 2 2-2 2z" fill="#555753"/></svg>

<svg xmlns="http://www.w3.org/2000/svg" viewBox="0 0 16 16">
  <path
     style="fill:#555753"
     d="M 7,1 V 4.625 L 4.7070312,2.3320312 3,4 7,8 3,12 4.7070312,13.667969 7,11.375 V 15 h 2 l 4,-3.585938 V 10.585938 L 10.414062,8 13,5.4140625 V 4.5859375 L 9,1 Z m 2,2 2,2 -2,2 z m 0,6 2,2 -2,2 z"
     />
</svg>
